tools/download-figma-icons/icons/outlined-medium/annual-report.svg

<svg width="24" height="24" viewBox="0 0 24 24" fill="none" xmlns="http://www.w3.org/2000/svg">
<path fill-rule="evenodd" clip-rule="evenodd" d="M21 18.7493C21 19.1632 20.6632 19.5 20.2493 19.5H6.75075C6.33675 19.5 6 19.1632 6 18.7493V2.25075C6 1.83675 6.33675 1.5 6.75075 1.5H20.2493C20.6632 1.5 21 1.83675 21 2.25075V18.7493ZM18 21.75C18 22.164 17.664 22.5 17.25 22.5H3.75C3.336 22.5 3 22.164 3 21.75V5.25C3 4.836 3.336 4.5 3.75 4.5H4.5V18.7493C4.5 19.9897 5.51025 21 6.75075 21H18V21.75ZM20.2493 0H6.75075C5.51025 0 4.5 1.01025 4.5 2.25075V3H3.75C2.5095 3 1.5 4.0095 1.5 5.25V21.75C1.5 22.9905 2.5095 24 3.75 24H17.25C18.4905 24 19.5 22.9905 19.5 21.75V21H20.2493C21.4897 21 22.5 19.9897 22.5 18.7493V2.25075C22.5 1.01025 21.4897 0 20.2493 0ZM18.75 3H8.25C7.83525 3 7.5 3.33525 7.5 3.75C7.5 4.16475 7.83525 4.5 8.25 4.5H18.75C19.1647 4.5 19.5 4.16475 19.5 3.75C19.5 3.33525 19.1647 3 18.75 3ZM13.5 6.01983C13.9148 6.01983 14.25 6.35508 14.25 6.76983C14.25 7.18458 13.9148 7.51983 13.5 7.51983H8.25C7.83525 7.51983 7.5 7.18458 7.5 6.76983C7.5 6.35508 7.83525 6.01983 8.25 6.01983H13.5ZM16.875 13.125H13.875V10.125C13.875 9.918 13.707 9.75 13.5 9.75C11.4323 9.75 9.75 11.4323 9.75 13.5C9.75 15.5677 11.4323 17.25 13.5 17.25C15.5677 17.25 17.25 15.5677 17.25 13.5C17.25 13.293 17.082 13.125 16.875 13.125ZM14.6265 9C14.6265 8.793 14.7945 8.625 15.0015 8.625C16.8615 8.625 18.375 10.1385 18.375 11.9978C18.375 12.2048 18.207 12.3728 18 12.3728L15 12.375C14.9003 12.375 14.805 12.3352 14.7353 12.2655C14.6648 12.195 14.625 12.0998 14.625 12L14.6265 9Z" fill="black"/>
</svg>

<svg width="24" height="24" viewBox="0 0 24 24" fill="none" xmlns="http://www.w3.org/2000/svg"><path fill-rule="evenodd" clip-rule="evenodd" d="M21 18.75c0 .413-.337.75-.75.75H6.75a.752.752 0 0 1-.75-.75V2.25c0-.413.337-.75.75-.75h13.5c.413 0 .75.337.75.75v16.5Zm-3 3a.75.75 0 0 1-.75.75H3.75a.75.75 0 0 1-.75-.75V5.25a.75.75 0 0 1 .75-.75h.75v14.25C4.5 19.99 5.51 21 6.75 21H18v.75ZM20.25 0H6.75C5.51 0 4.5 1.01 4.5 2.25V3h-.75C2.51 3 1.5 4.01 1.5 5.25v16.5C1.5 22.99 2.51 24 3.75 24h13.5c1.24 0 2.25-1.01 2.25-2.25V21h.75c1.24 0 2.25-1.01 2.25-2.25V2.25C22.5 1.01 21.49 0 20.25 0Zm-1.5 3H8.25a.75.75 0 1 0 0 1.5h10.5a.75.75 0 1 0 0-1.5ZM13.5 6.02a.75.75 0 1 1 0 1.5H8.25a.75.75 0 1 1 0-1.5h5.25Zm3.375 7.105h-3v-3a.375.375 0 0 0-.375-.375 3.754 3.754 0 0 0-3.75 3.75 3.754 3.754 0 0 0 3.75 3.75 3.754 3.754 0 0 0 3.75-3.75.375.375 0 0 0-.375-.375ZM14.627 9c0-.207.167-.375.374-.375a3.377 3.377 0 0 1 3.374 3.373.375.375 0 0 1-.375.375l-3 .002a.375.375 0 0 1-.375-.375l.002-3Z" fill="currentColor"/></svg>
